X: 1
T: String Quartet in B\b major opus 1 no 1 mvt 4
C: Franz Joseph Haydn
%%abc-version 2.0
%%abcx-abcm2ps-target-version 5.9.1 (29 Sep 2008)
%%abc-creator hum2abc beta
%%abcx-conversion-date 2021/02/14 14:38:34
%%abc-copyright Copyright (c) 1994, 2000 Center for Computer Assisted Research in the Humanities
%%abc-edited-by Frances Bennion
%%abcx-initial-encoding-date 1997/04/15
%%gracespace 0 6 6
%%humdrum-veritas 1363160978
%%humdrum-veritas-data 1898585938
%%linebreak <none>
%%barnumbers 0
L: 1/4
M: 3/4
N: Derived from op01n1-04.krn
Q: "Menuetto II"
%%staves [1 2 3 4]
V: 1
V: 2
V: 3 clef=alto
V: 4 clef=bass
K: Bb
[V:1]z2 f [I:setbarnb1] |
[V:2]z2 F |
[V:3]z2 z |
[V:4]z2 z |
[V:1]b b b |
[V:2]B B B |
[V:3]z z B, |
[V:4]z z B,, |
[V:1]b/a/ a b |
[V:2]B/A/ A B |
[V:3]F F G |
[V:4]F, F, G, |
[V:1]c' >b a |
[V:2]c >B A |
[V:3]E2 F |
[V:4]E,2 F, |
[V:1]b f f |
[V:2]B F d |
[V:3]B, z2 |
[V:4]B,, z2 |
[V:1]f/e/ e/d/ d/c/ |
[V:2]d/c/ c/B/ B/A/ |
[V:3]z3 |
[V:4]z3 |
[V:1]f/e/ e/d/ d/c/ |
[V:2]d/c/ c/B/ B/A/ |
[V:3]z3 |
[V:4]z3 |
[V:1]d3//c/8d/8 e e |
[V:2]B3//A/8B/8 c c |
[V:3]z2 F |
[V:4]z2 F, |
[V:1]d z f |
[V:2]B z F |
[V:3]B B B |
[V:4]B, B, B, |
[V:1]c' c' c' |
[V:2]c c c |
[V:3]A z F |
[V:4]A, z F, |
[V:1]c'/b/ b a |
[V:2]c/B/ B A |
[V:3]d d d |
[V:4]D D D |
[V:1]a/g/ b/g/ f/=e/ |
[V:2]A/G/ B/G/ F/=E/ |
[V:3]B2 c |
[V:4]B,2 C |
[V:1]f z F |
[V:2]F z2 |
[V:3]F F, z |
[V:4]F, F,, z |
[V:1]f f e |
[V:2]z2 F |
[V:3]z3 |
[V:4]z3 |
[V:1]_d d c |
[V:2]f f e |
[V:3]z2 F, |
[V:4]z2 F,, |
[V:1]B B A |
[V:2]_d d c |
[V:3]F F E |
[V:4]F, F, E, |
[V:1]B B c |
[V:2]B F F |
[V:3]_D D A, |
[V:4]_D, D, A,, |
[V:1]_d c f/c/ |
[V:2]B A A |
[V:3]B, F, z |
[V:4]B,, F,, z |
[V:1]_d c z |
[V:2]B A z |
[V:3]F, z F |
[V:4]F,, z F, |
[V:1]z2 B |
[V:2]z2 B, |
[V:3]B B B |
[V:4]B, B, B, |
[V:1]e e e |
[V:2]E E E |
[V:3]A z F |
[V:4]A, z F, |
[V:1]d z B |
[V:2]D z B, |
[V:3]B B B |
[V:4]B, B, B, |
[V:1]g g g |
[V:2]G G G |
[V:3]E z e |
[V:4]E, z E, |
[V:1]f b/f/ g/e/ |
[V:2]F B/F/ G/E/ |
[V:3]d2 e |
[V:4]B, B, B, |
[V:1]f b/f/ e/d/ |
[V:2]F B/F/ E/D/ |
[V:3]d z2 |
[V:4]B, z2 |
[V:1]c B A |
[V:2]C B, A, |
[V:3]G D C |
[V:4]E, F, F,, |
[V:1]B2 z |
[V:2]B, z2 |
[V:3]B, z2 |
[V:4]B,,2 z |
[V:1]f e/d/ c/B/ |
[V:2]D D D |
[V:3]B, B, B, |
[V:4]B,, B,, B,, |
[V:1]g f/e/ d/c/ |
[V:2]E E E |
[V:3]B, B, B, |
[V:4]B,, B,, B,, |
[V:1]e d/c/ B/A/ |
[V:2]C E E |
[V:3]B, B, B, |
[V:4]B,, B,, B,, |
[V:1]B F z |
[V:2]D z2 |
[V:3]B, z2 |
[V:4]B,, z2 |
[V:1]c c ^c |
[V:2]F F F |
[V:3]A, A, A, |
[V:4]A,, A,, A,, |
[V:1]d2 (3f/d/B/ |
[V:2]F F F |
[V:3]B, B, B, |
[V:4]B,, B,, B,, |
[V:1]A z G |
[V:2]F F =E |
[V:3]C C C |
[V:4]C, C, C, |
[V:1]F2 z |
[V:2]F z2 |
[V:3]F C F, |
[V:4]F, C, F,, |
[V:1]f f ^f |
[V:2]B B B |
[V:3]D D D |
[V:4]D, D, D, |
[V:1]g b/g/ e/d/ |
[V:2]B z2 |
[V:3]E z2 |
[V:4]E, z2 |
[V:1]c g/e/ c/B/ |
[V:2]G G E/D/ |
[V:3]E E E |
[V:4]E, E, E, |
[V:1]A2 z |
[V:2]C2 z |
[V:3]F F/E/ D/C/ |
[V:4]F, F,/E,/ D,/C,/ |
[V:1]f e/d/ c/B/ |
[V:2]D z2 |
[V:3]B, z2 |
[V:4]B,, z2 |
[V:1]g f/e/ d/c/ |
[V:2]B, z2 |
[V:3]E z2 |
[V:4]E, z2 |
[V:1]d B A |
[V:2]B D C |
[V:3]F F F |
[V:4]F, F, F, |
[V:1]B2 z |]
[V:2]B, z2 |]
[V:3]B B, z |]
[V:4]B, B,, z |]

